icon/pk/journey.svg

<svg viewBox="0 0 48 48" fill="none" xmlns="http://www.w3.org/2000/svg" height="1em" width="1em">
  <g clip-path="url(#clip0_12383_10766)">
    <path d="M24 40C32.2843 40 39 33.2843 39 25C39 16.7157 32.2843 10 24 10C15.7157 10 9 16.7157 9 25C9 33.2843 15.7157 40 24 40Z" stroke="black" stroke-width="4" stroke-linecap="round" stroke-linejoin="round"/>
    <path d="M20.0002 11C21.8049 12.0083 23.5002 13.5 23.3581 15.4454C23.2445 17 21.915 17.3469 21.6369 18.4711C21.359 19.5953 22.9674 20.8217 20.2464 22.636C18.4324 23.8455 12.971 26.1447 9 24" stroke="black" stroke-width="4" stroke-linecap="round"/>
    <path d="M9.50011 24.5C6.50011 26.3883 2.06824 31.521 4.00056 35C6.5 39.5 16.0004 35.6906 27.0001 27C37.9999 18.3094 42.2291 5.60642 42.2291 5.60642L37.0005 7" stroke="black" stroke-width="4" stroke-linecap="round" stroke-linejoin="round"/>
    <path d="M26.0006 40C26.0006 40 26.5003 35 30 32C33.4997 29 38.0007 29 38.0007 29" stroke="black" stroke-width="4" stroke-linecap="round"/>
  </g>
  <defs>
    <clipPath id="clip0_12383_10766">
      <rect width="48" height="48" fill="white"/>
    </clipPath>
  </defs>
</svg>

<svg width="48" height="48" fill="none" xmlns="http://www.w3.org/2000/svg"><g clip-path="url(#a)" stroke="#000" stroke-width="4" stroke-linecap="round"><path d="M24 40c8.284 0 15-6.716 15-15 0-8.284-6.716-15-15-15-8.284 0-15 6.716-15 15 0 8.284 6.716 15 15 15Z" stroke-linejoin="round"/><path d="M20 11c1.805 1.008 3.5 2.5 3.358 4.445-.114 1.555-1.443 1.902-1.721 3.026-.278 1.124 1.33 2.35-1.39 4.165C18.431 23.846 12.97 26.145 9 24"/><path d="M9.5 24.5C6.5 26.388 2.068 31.521 4 35c2.5 4.5 12 .69 23-8S42.23 5.606 42.23 5.606L37 7" stroke-linejoin="round"/><path d="M26 40s.5-5 4-8 8-3 8-3"/></g><defs><clipPath id="a"><path fill="#fff" d="M0 0h48v48H0z"/></clipPath></defs></svg>
